!!!OTL: "Die Wahl" ICH HABE MIR EINE ERWAEHLET
!!!ARE: Europa, Mitteleuropa, Deutschland, Niederrhein
!!!SCT: Z1171
!!!YEM: Copyright 1995, estate of Helmut Schaffrath.
**kern
*ICvox
*Ivox
*M6/8
*k[b-]
*F:
{16a
16b-
=1
8cc
8ff
8dd
8cc
8dd
8b-
=2
8a
8f
4.r}
{16f
16g
=3
8a
8b-
8a
8g
8a
8g
=4
4f
4.r}
{16a
16b-
=5
8cc
8f
8dd
4cc
16a
16b-
=6
8cc
8f
8dd
4cc}
{8c
=7
8f
8e
8f
8g
8f
8g
=8
8.a
16b-
16cc
16dd
4cc}
{8cc
=9
8a
8b-
8a
8g
8a
8g
=10
4f
4.r}
==
!!!AGN: Liebes - Lied, Abschieds - Lied
!!!ONB: ESAC (Essen Associative Code) Database: ZUCCAL
!!!AMT: compound duple
!!!AIN: vox
!!!EED: Helmut Schaffrath
!!!EEV: 1.0
*-
